;FLAVOR:Marlin
;TIME:475
;Filament used: 0.368388m
;Layer height: 0.16
;Generated with Cura_SteamEngine 4.0.0-BETA
M140 S60
M105
M190 S60
M104 S200
M105
M109 S200
M82 ;absolute extrusion mode
; Ender 3 Custom Start G-code
G28 ; Home all axes
G92 E0 ; Reset Extruder
G1 Z2.0 F3000 ; Move Z Axis up little to prevent scratching of Heat Bed
G1 X0.1 Y20 Z0.3 F5000.0 ; Move to start position
G1 X0.1 Y200.0 Z0.3 F1500.0 E15 ; Draw the first line
G1 X0.4 Y200.0 Z0.3 F5000.0 ; Move to side a little
G1 X0.4 Y20 Z0.3 F1500.0 E30 ; Draw the second line
G92 E0 ; Reset Extruder
G1 Z2.0 F3000 ; Move Z Axis up little to prevent scratching of Heat Bed
; End of custom start GCode
G92 E0
G1 F2400 E-5
;LAYER_COUNT:49
;LAYER:0
M107
M204 S5000
M205 X30 Y30
G0 F3600 X107.953 Y100.197 Z0.2
M204 S500
M205 X20 Y20
;TYPE:SKIRT
G1 F2400 E0
G1 F1800 X109.428 Y98.708 E0.06971
G1 X109.512 Y98.625 E0.07364
G1 X110.032 Y98.119 E0.09777
G1 X110.571 Y97.65 E0.12153
G1 X111.16 Y97.244 E0.14533
G1 X111.79 Y96.906 E0.16911
G1 X112.455 Y96.64 E0.19293
G1 X113.144 Y96.45 E0.2167
G1 X113.851 Y96.339 E0.2405
G1 X114.495 Y96.306 E0.26195
G1 X120.504 Y96.306 E0.46181
G1 X121.218 Y96.346 E0.48559
G1 X121.923 Y96.465 E0.50937
G1 X122.611 Y96.663 E0.53319
G1 X123.272 Y96.936 E0.55697
G1 X123.899 Y97.28 E0.58076
G1 X124.483 Y97.693 E0.60455
G1 X125.062 Y98.213 E0.63043
G1 X127.047 Y100.227 E0.72449
G1 X127.52 Y100.764 E0.74829
G1 X127.93 Y101.35 E0.77208
G1 X128.272 Y101.978 E0.79586
G1 X128.542 Y102.641 E0.81967
G1 X128.736 Y103.329 E0.84344
G1 X128.852 Y104.035 E0.86724
G1 X128.889 Y104.717 E0.88996
G1 X128.9 Y130.296 E1.74072
G1 X128.86 Y131.01 E1.7645
G1 X128.741 Y131.716 E1.78832
G1 X128.544 Y132.403 E1.81209
G1 X128.272 Y133.065 E1.83589
G1 X127.927 Y133.691 E1.85966
G1 X127.515 Y134.276 E1.88346
G1 X127.028 Y134.822 E1.9078
G1 X125.043 Y136.809 E2.00121
G1 X124.51 Y137.286 E2.025
G1 X123.927 Y137.701 E2.0488
G1 X123.301 Y138.048 E2.07261
G1 X122.641 Y138.323 E2.09639
G1 X121.954 Y138.522 E2.12018
G1 X121.249 Y138.644 E2.14398
G1 X120.524 Y138.686 E2.16813
G1 X114.506 Y138.694 E2.36829
G1 X113.791 Y138.655 E2.39211
G1 X113.086 Y138.537 E2.41588
G1 X112.398 Y138.34 E2.43968
G1 X111.737 Y138.068 E2.46346
G1 X111.11 Y137.724 E2.48724
G1 X110.525 Y137.312 E2.51104
G1 X109.996 Y136.844 E2.53453
G1 X108.497 Y135.361 E2.60467
G1 X108.415 Y135.278 E2.60855
G1 X107.917 Y134.767 E2.63228
G1 X107.447 Y134.227 E2.65609
G1 X107.04 Y133.639 E2.67988
G1 X106.702 Y133.009 E2.70365
G1 X106.436 Y132.345 E2.72745
G1 X106.245 Y131.656 E2.75123
G1 X106.133 Y130.949 E2.77503
G1 X106.1 Y130.3 E2.79665
G1 X106.1 Y104.701 E3.64807
G1 X106.14 Y103.987 E3.67186
G1 X106.259 Y103.282 E3.69564
G1 X106.457 Y102.594 E3.71945
G1 X106.73 Y101.933 E3.74324
G1 X107.074 Y101.306 E3.76702
G1 X107.487 Y100.722 E3.79081
G1 X107.953 Y100.197 E3.81416
M204 S5000
M205 X30 Y30
G0 F3600 X108.237 Y100.478
M204 S500
M205 X20 Y20
G1 F1800 X109.712 Y98.989 E3.88387
G1 X109.791 Y98.912 E3.88754
G1 X110.311 Y98.406 E3.91167
G1 X110.834 Y97.952 E3.93471
G1 X111.406 Y97.562 E3.95773
G1 X112.019 Y97.24 E3.98076
G1 X112.666 Y96.992 E4.00381
G1 X113.336 Y96.819 E4.02683
G1 X114.022 Y96.725 E4.04985
G1 X114.495 Y96.706 E4.0656
G1 X120.504 Y96.706 E4.26546
G1 X121.195 Y96.746 E4.28848
G1 X121.878 Y96.865 E4.31154
G1 X122.541 Y97.063 E4.33455
G1 X123.178 Y97.335 E4.35759
G1 X123.779 Y97.679 E4.38062
G1 X124.337 Y98.09 E4.40367
G1 X124.777 Y98.494 E4.42354
G1 X126.762 Y100.508 E4.51759
G1 X127.219 Y101.029 E4.54064
G1 X127.613 Y101.598 E4.56366
G1 X127.939 Y102.21 E4.58673
G1 X128.192 Y102.854 E4.60974
G1 X128.369 Y103.524 E4.63279
G1 X128.467 Y104.209 E4.6558
G1 X128.489 Y104.717 E4.67272
G1 X128.5 Y130.296 E5.52348
G1 X128.46 Y130.988 E5.54653
G1 X128.341 Y131.67 E5.56956
G1 X128.144 Y132.334 E5.59259
G1 X127.872 Y132.971 E5.61563
G1 X127.529 Y133.572 E5.63865
G1 X127.118 Y134.13 E5.6617
G1 X126.745 Y134.54 E5.68013
G1 X124.76 Y136.527 E5.77355
G1 X124.243 Y136.987 E5.79656
G1 X123.676 Y137.386 E5.81962
G1 X123.068 Y137.716 E5.84263
G1 X122.425 Y137.974 E5.86568
G1 X121.757 Y138.156 E5.8887
G1 X121.072 Y138.26 E5.91175
G1 X120.523 Y138.286 E5.93003
G1 X114.505 Y138.294 E6.13019
G1 X113.814 Y138.255 E6.15321
G1 X113.131 Y138.136 E6.17627
G1 X112.467 Y137.94 E6.19929
G1 X111.83 Y137.669 E6.22232
G1 X111.228 Y137.326 E6.24536
G1 X110.67 Y136.915 E6.26841
G1 X110.277 Y136.559 E6.28605
G1 X108.778 Y135.076 E6.35618
G1 X108.701 Y134.999 E6.3598
G1 X108.203 Y134.488 E6.38354
G1 X107.749 Y133.965 E6.40657
G1 X107.359 Y133.393 E6.4296
G1 X107.036 Y132.78 E6.45264
G1 X106.787 Y132.134 E6.47567
G1 X106.614 Y131.463 E6.49872
G1 X106.519 Y130.777 E6.52175
G1 X106.5 Y130.3 E6.53763
G1 X106.5 Y104.701 E7.38905
G1 X106.54 Y104.01 E7.41208
G1 X106.659 Y103.327 E7.43513
G1 X106.857 Y102.664 E7.45815
G1 X107.129 Y102.027 E7.48119
G1 X107.473 Y101.426 E7.50422
G1 X107.884 Y100.868 E7.52727
G1 X108.237 Y100.478 E7.54476
M204 S5000
M205 X30 Y30
G0 F3600 X108.522 Y100.76
M204 S500
M205 X20 Y20
G1 F1800 X109.997 Y99.271 E7.61447
G1 X110.07 Y99.199 E7.61788
G1 X110.59 Y98.693 E7.64202
G1 X111.096 Y98.255 E7.66428
G1 X111.651 Y97.882 E7.68652
G1 X112.247 Y97.577 E7.70878
G1 X112.874 Y97.346 E7.73101
G1 X113.525 Y97.191 E7.75327
G1 X114.495 Y97.106 E7.78565
G1 X120.504 Y97.106 E7.98551
G1 X121.172 Y97.146 E8.00777
G1 X121.83 Y97.265 E8.03001
G1 X122.47 Y97.462 E8.05228
G1 X123.081 Y97.734 E8.07453
G1 X123.655 Y98.077 E8.09677
G1 X124.185 Y98.486 E8.11903
G1 X124.492 Y98.775 E8.13306
G1 X126.477 Y100.789 E8.22711
G1 X126.918 Y101.293 E8.24938
G1 X127.295 Y101.845 E8.27162
G1 X127.603 Y102.439 E8.29387
G1 X127.839 Y103.065 E8.31612
G1 X127.998 Y103.715 E8.33838
G1 X128.079 Y104.379 E8.36063
G1 X128.089 Y104.718 E8.37191
G1 X128.1 Y130.297 E9.22267
G1 X128.06 Y130.964 E9.24489
G1 X127.941 Y131.623 E9.26717
G1 X127.745 Y132.262 E9.2894
G1 X127.473 Y132.874 E9.31167
G1 X127.13 Y133.448 E9.33391
G1 X126.722 Y133.978 E9.35616
G1 X126.462 Y134.257 E9.36884
G1 X124.477 Y136.244 E9.46226
G1 X123.977 Y136.688 E9.4845
G1 X123.427 Y137.069 E9.50675
G1 X122.836 Y137.383 E9.52901
G1 X122.211 Y137.623 E9.55128
G1 X121.563 Y137.787 E9.57351
G1 X120.899 Y137.873 E9.59578
G1 X120.522 Y137.886 E9.60833
G1 X114.504 Y137.894 E9.80849
G1 X113.837 Y137.855 E9.83071
G1 X113.178 Y137.736 E9.85298
G1 X112.538 Y137.54 E9.87524
G1 X111.927 Y137.269 E9.89747
G1 X111.352 Y136.927 E9.91973
G1 X110.822 Y136.519 E9.94197
G1 X110.559 Y136.275 E9.9539
G1 X109.06 Y134.792 E10.02404
G1 X108.988 Y134.719 E10.02745
G1 X108.49 Y134.208 E10.05118
G1 X108.052 Y133.702 E10.07344
G1 X107.678 Y133.148 E10.09567
G1 X107.373 Y132.552 E10.11794
G1 X107.141 Y131.925 E10.14017
G1 X106.985 Y131.274 E10.16244
G1 X106.9 Y130.3 E10.19496
G1 X106.9 Y104.701 E11.04638
G1 X106.94 Y104.033 E11.06864
G1 X107.059 Y103.375 E11.09088
G1 X107.256 Y102.735 E11.11315
G1 X107.528 Y102.124 E11.1354
G1 X107.871 Y101.55 E11.15764
G1 X108.28 Y101.02 E11.17991
G1 X108.522 Y100.76 E11.19172
M204 S5000
M205 X30 Y30
G0 F3600 X108.806 Y101.041
M204 S500
M205 X20 Y20
G1 F1800 X110.281 Y99.552 E11.26143
G1 X110.349 Y99.485 E11.2646
G1 X110.869 Y98.979 E11.28874
G1 X111.358 Y98.559 E11.31018
G1 X111.895 Y98.203 E11.33161
G1 X112.472 Y97.916 E11.35304
G1 X113.08 Y97.702 E11.37448
G1 X113.71 Y97.566 E11.39591
G1 X114.495 Y97.506 E11.4221
G1 X120.504 Y97.506 E11.62196
G1 X121.147 Y97.546 E11.64339
G1 X121.781 Y97.665 E11.66484
G1 X122.395 Y97.862 E11.68629
G1 X122.98 Y98.133 E11.70773
G1 X123.527 Y98.475 E11.72919
G1 X124.208 Y99.056 E11.75896
G1 X126.193 Y101.07 E11.85302
G1 X126.616 Y101.556 E11.87445
G1 X126.975 Y102.091 E11.89587
G1 X127.266 Y102.666 E11.91731
G1 X127.484 Y103.273 E11.93876
G1 X127.624 Y103.902 E11.96019
G1 X127.689 Y104.718 E11.98742
G1 X127.7 Y130.297 E12.83818
G1 X127.66 Y130.94 E12.85961
G1 X127.541 Y131.574 E12.88106
G1 X127.345 Y132.188 E12.9025
G1 X127.074 Y132.773 E12.92394
G1 X126.733 Y133.32 E12.94538
G1 X126.179 Y133.974 E12.97389
G1 X124.194 Y135.961 E13.06731
G1 X123.711 Y136.388 E13.08875
G1 X123.179 Y136.752 E13.11019
G1 X122.606 Y137.047 E13.13162
G1 X122 Y137.269 E13.15309
G1 X121.372 Y137.415 E13.17453
G1 X120.522 Y137.486 E13.2029
G1 X114.504 Y137.494 E13.40306
G1 X113.86 Y137.455 E13.42452
G1 X113.227 Y137.336 E13.44594
G1 X112.613 Y137.141 E13.46737
G1 X112.027 Y136.87 E13.48884
G1 X111.48 Y136.529 E13.51028
G1 X110.84 Y135.991 E13.53809
G1 X109.341 Y134.508 E13.60822
G1 X109.274 Y134.44 E13.6114
G1 X108.776 Y133.929 E13.63513
G1 X108.356 Y133.441 E13.65655
G1 X107.999 Y132.904 E13.67799
G1 X107.711 Y132.327 E13.69944
G1 X107.497 Y131.719 E13.72088
G1 X107.36 Y131.089 E13.74232
G1 X107.3 Y130.3 E13.76864
G1 X107.3 Y104.701 E14.62007
G1 X107.34 Y104.058 E14.6415
G1 X107.459 Y103.424 E14.66295
G1 X107.656 Y102.81 E14.6844
G1 X107.927 Y102.225 E14.70584
G1 X108.269 Y101.678 E14.7273
G1 X108.806 Y101.041 E14.75501
M204 S5000
M205 X30 Y30
G1 F2400 E9.75501
;MESH:LidHinge.stl
G0 F3600 X113.84 Y102.408
G0 X114.747 Y103.314
G0 X121.51 Y105.11
M204 S500
M205 X20 Y20
;TYPE:WALL-INNER
G1 F2400 E14.75501
G1 F1800 X121.51 Y129.89 E15.57919
G1 X120.096 Y131.304 E15.64571
G1 X114.905 Y131.304 E15.81836
G1 X113.49 Y129.89 E15.88489
G1 X113.49 Y105.11 E16.70908
G1 X114.906 Y103.696 E16.77564
G1 X120.096 Y103.696 E16.94826
G1 X121.51 Y105.11 E17.01477
M204 S5000
M205 X30 Y30
G0 F3600 X121.91 Y104.944
M204 S500
M205 X20 Y20
G1 F1800 X121.91 Y130.056 E17.84999
G1 X120.262 Y131.704 E17.92751
G1 X114.739 Y131.704 E18.11121
G1 X113.09 Y130.056 E18.18875
G1 X113.09 Y104.944 E19.02398
G1 X114.74 Y103.296 E19.10154
G1 X120.262 Y103.296 E19.2852
G1 X121.91 Y104.944 E19.36272
M204 S5000
M205 X30 Y30
G0 F3600 X122.31 Y104.778
M204 S500
M205 X20 Y20
;TYPE:WALL-OUTER
G1 F1800 X122.31 Y130.222 E20.20899
G1 X120.428 Y132.104 E20.29751
G1 X114.573 Y132.104 E20.49225
G1 X112.69 Y130.222 E20.5808
G1 X112.69 Y104.778 E21.42707
G1 X114.574 Y102.896 E21.51564
G1 X120.428 Y102.896 E21.71035
G1 X122.31 Y104.778 E21.79887
M204 S5000
M205 X30 Y30
G0 F3600 X122.31 Y104.978
G0 X121.87 Y104.978
G0 X121.12 Y105.27
M204 S500
M205 X20 Y20
;TYPE:SKIN
G1 F1800 X121.12 Y129.73 E22.61241
G1 X119.936 Y130.914 E22.6681
G1 X115.065 Y130.914 E22.83011
G1 X113.88 Y129.73 E22.88583
G1 X113.88 Y105.271 E23.69934
G1 X115.067 Y104.086 E23.75512
G1 X119.936 Y104.086 E23.91707
G1 X121.12 Y105.27 E23.97276
M204 S5000
M205 X30 Y30
G0 F3600 X120.94 Y105.666
M204 S500
M205 X20 Y20
G1 F1800 X119.539 Y104.265 E24.03866
M204 S5000
M205 X30 Y30
G0 F3600 X118.973 Y104.265
M204 S500
M205 X20 Y20
G1 F1800 X120.94 Y106.232 E24.13118
M204 S5000
M205 X30 Y30
G0 F3600 X120.94 Y106.797
M204 S500
M205 X20 Y20
G1 F1800 X118.407 Y104.265 E24.2503
M204 S5000
M205 X30 Y30
G0 F3600 X117.842 Y104.265
M204 S500
M205 X20 Y20
G1 F1800 X120.94 Y107.363 E24.39602
M204 S5000
M205 X30 Y30
G0 F3600 X120.94 Y107.929
M204 S500
M205 X20 Y20
G1 F1800 X117.276 Y104.265 E24.56836
M204 S5000
M205 X30 Y30
G0 F3600 X116.71 Y104.265
M204 S500
M205 X20 Y20
G1 F1800 X120.94 Y108.494 E24.76731
M204 S5000
M205 X30 Y30
G0 F3600 X120.94 Y109.06
M204 S500
M205 X20 Y20
G1 F1800 X116.145 Y104.265 E24.99285
M204 S5000
M205 X30 Y30
G0 F3600 X115.579 Y104.265
M204 S500
M205 X20 Y20
G1 F1800 X120.94 Y109.626 E25.24501
M204 S5000
M205 X30 Y30
G0 F3600 X120.94 Y110.191
M204 S500
M205 X20 Y20
G1 F1800 X115.077 Y104.329 E25.52077
M204 S5000
M205 X30 Y30
G0 F3600 X114.794 Y104.612
M204 S500
M205 X20 Y20
G1 F1800 X120.94 Y110.757 E25.80983
M204 S5000
M205 X30 Y30
G0 F3600 X120.94 Y111.323
M204 S500
M205 X20 Y20
G1 F1800 X114.511 Y104.895 E26.11221
M204 S5000
M205 X30 Y30
G0 F3600 X114.228 Y105.177
M204 S500
M205 X20 Y20
G1 F1800 X120.94 Y111.889 E26.42792
M204 S5000
M205 X30 Y30
G0 F3600 X120.94 Y112.454
M204 S500
M205 X20 Y20
G1 F1800 X114.059 Y105.573 E26.75158
M204 S5000
M205 X30 Y30
G0 F3600 X114.059 Y106.139
M204 S500
M205 X20 Y20
G1 F1800 X120.94 Y113.02 E27.07525
M204 S5000
M205 X30 Y30
G0 F3600 X120.94 Y113.586
M204 S500
M205 X20 Y20
G1 F1800 X114.059 Y106.705 E27.39891
M204 S5000
M205 X30 Y30
G0 F3600 X114.059 Y107.27
M204 S500
M205 X20 Y20
G1 F1800 X120.94 Y114.151 E27.72257
M204 S5000
M205 X30 Y30
G0 F3600 X120.94 Y114.717
M204 S500
M205 X20 Y20
G1 F1800 X114.059 Y107.836 E28.04623
M204 S5000
M205 X30 Y30
G0 F3600 X114.059 Y108.402
M204 S500
M205 X20 Y20
G1 F1800 X120.94 Y115.283 E28.36989
M204 S5000
M205 X30 Y30
G0 F3600 X120.94 Y115.848
M204 S500
M205 X20 Y20
G1 F1800 X114.059 Y108.967 E28.69355
M204 S5000
M205 X30 Y30
G0 F3600 X114.059 Y109.533
M204 S500
M205 X20 Y20
G1 F1800 X120.94 Y116.414 E29.01721
M204 S5000
M205 X30 Y30
G0 F3600 X120.94 Y116.98
M204 S500
M205 X20 Y20
G1 F1800 X114.059 Y110.099 E29.34087
M204 S5000
M205 X30 Y30
G0 F3600 X114.059 Y110.665
M204 S500
M205 X20 Y20
G1 F1800 X120.94 Y117.545 E29.66451
M204 S5000
M205 X30 Y30
G0 F3600 X120.94 Y118.111
M204 S500
M205 X20 Y20
G1 F1800 X114.059 Y111.23 E29.98817
M204 S5000
M205 X30 Y30
G0 F3600 X114.059 Y111.796
M204 S500
M205 X20 Y20
G1 F1800 X120.94 Y118.677 E30.31183
M204 S5000
M205 X30 Y30
G0 F3600 X120.94 Y119.242
M204 S500
M205 X20 Y20
G1 F1800 X114.059 Y112.362 E30.63547
M204 S5000
M205 X30 Y30
G0 F3600 X114.059 Y112.927
M204 S500
M205 X20 Y20
G1 F1800 X120.94 Y119.808 E30.95913
M204 S5000
M205 X30 Y30
G0 F3600 X120.94 Y120.374
M204 S500
M205 X20 Y20
G1 F1800 X114.059 Y113.493 E31.28279
M204 S5000
M205 X30 Y30
G0 F3600 X114.059 Y114.059
M204 S500
M205 X20 Y20
G1 F1800 X120.94 Y120.94 E31.60645
M204 S5000
M205 X30 Y30
G0 F3600 X120.94 Y121.505
M204 S500
M205 X20 Y20
G1 F1800 X114.059 Y114.624 E31.93012
M204 S5000
M205 X30 Y30
G0 F3600 X114.059 Y115.19
M204 S500
M205 X20 Y20
G1 F1800 X120.94 Y122.071 E32.25378
M204 S5000
M205 X30 Y30
G0 F3600 X120.94 Y122.637
M204 S500
M205 X20 Y20
G1 F1800 X114.059 Y115.756 E32.57744
M204 S5000
M205 X30 Y30
G0 F3600 X114.059 Y116.321
M204 S500
M205 X20 Y20
G1 F1800 X120.94 Y123.202 E32.9011
M204 S5000
M205 X30 Y30
G0 F3600 X120.94 Y123.768
M204 S500
M205 X20 Y20
G1 F1800 X114.059 Y116.887 E33.22476
M204 S5000
M205 X30 Y30
G0 F3600 X114.059 Y117.453
M204 S500
M205 X20 Y20
G1 F1800 X120.94 Y124.334 E33.54842
M204 S5000
M205 X30 Y30
G0 F3600 X120.94 Y124.899
M204 S500
M205 X20 Y20
G1 F1800 X114.059 Y118.018 E33.87208
M204 S5000
M205 X30 Y30
G0 F3600 X114.059 Y118.584
M204 S500
M205 X20 Y20
G1 F1800 X120.94 Y125.465 E34.19574
M204 S5000
M205 X30 Y30
G0 F3600 X120.94 Y126.031
M204 S500
M205 X20 Y20
G1 F1800 X114.059 Y119.15 E34.5194
M204 S5000
M205 X30 Y30
G0 F3600 X114.059 Y119.716
M204 S500
M205 X20 Y20
G1 F1800 X120.94 Y126.596 E34.84304
M204 S5000
M205 X30 Y30
G0 F3600 X120.94 Y127.162
M204 S500
M205 X20 Y20
G1 F1800 X114.059 Y120.281 E35.1667
M204 S5000
M205 X30 Y30
G0 F3600 X114.059 Y120.847
M204 S500
M205 X20 Y20
G1 F1800 X120.94 Y127.728 E35.49036
M204 S5000
M205 X30 Y30
G0 F3600 X120.94 Y128.293
M204 S500
M205 X20 Y20
G1 F1800 X114.059 Y121.413 E35.814
M204 S5000
M205 X30 Y30
G0 F3600 X114.059 Y121.978
M204 S500
M205 X20 Y20
G1 F1800 X120.94 Y128.859 E36.13766
M204 S5000
M205 X30 Y30
G0 F3600 X120.94 Y129.425
M204 S500
M205 X20 Y20
G1 F1800 X114.059 Y122.544 E36.46132
M204 S5000
M205 X30 Y30
G0 F3600 X114.059 Y123.11
M204 S500
M205 X20 Y20
G1 F1800 X120.772 Y129.823 E36.77708
M204 S5000
M205 X30 Y30
G0 F3600 X120.489 Y130.106
M204 S500
M205 X20 Y20
G1 F1800 X114.059 Y123.675 E37.07955
M204 S5000
M205 X30 Y30
G0 F3600 X114.059 Y124.241
M204 S500
M205 X20 Y20
G1 F1800 X120.206 Y130.389 E37.36871
M204 S5000
M205 X30 Y30
G0 F3600 X119.923 Y130.671
M204 S500
M205 X20 Y20
G1 F1800 X114.059 Y124.807 E37.64454
M204 S5000
M205 X30 Y30
G0 F3600 X114.059 Y125.372
M204 S500
M205 X20 Y20
G1 F1800 X119.419 Y130.733 E37.89668
M204 S5000
M205 X30 Y30
G0 F3600 X118.854 Y130.733
M204 S500
M205 X20 Y20
G1 F1800 X114.059 Y125.938 E38.12222
M204 S5000
M205 X30 Y30
G0 F3600 X114.059 Y126.504
M204 S500
M205 X20 Y20
G1 F1800 X118.288 Y130.733 E38.32114
M204 S5000
M205 X30 Y30
G0 F3600 X117.722 Y130.733
M204 S500
M205 X20 Y20
G1 F1800 X114.059 Y127.069 E38.49346
M204 S5000
M205 X30 Y30
G0 F3600 X114.059 Y127.635
M204 S500
M205 X20 Y20
G1 F1800 X117.156 Y130.733 E38.63916
M204 S5000
