;FLAVOR:Marlin
;TIME:3673
;Filament used: 3.35788m
;Layer height: 0.16
;Generated with Cura_SteamEngine 4.0.0-BETA
M140 S50
M105
M190 S50
M104 S200
M105
M109 S200
M82 ;absolute extrusion mode
; Ender 3 Custom Start G-code
G28 ; Home all axes
G92 E0 ; Reset Extruder
G1 Z2.0 F3000 ; Move Z Axis up little to prevent scratching of Heat Bed
G1 X0.1 Y20 Z0.3 F5000.0 ; Move to start position
G1 X0.1 Y200.0 Z0.3 F1500.0 E15 ; Draw the first line
G1 X0.4 Y200.0 Z0.3 F5000.0 ; Move to side a little
G1 X0.4 Y20 Z0.3 F1500.0 E30 ; Draw the second line
G92 E0 ; Reset Extruder
G1 Z2.0 F3000 ; Move Z Axis up little to prevent scratching of Heat Bed
; End of custom start GCode
G92 E0
G1 F2400 E-5
;LAYER_COUNT:316
;LAYER:0
M107
M204 S5000
M205 X30 Y30
G0 F3600 X99.72 Y84.294 Z0.2
M204 S500
M205 X20 Y20
;TYPE:SKIRT
G1 F2400 E0
G1 F1800 X100.208 Y83.77 E0.02382
G1 X100.75 Y83.304 E0.04759
G1 X101.341 Y82.902 E0.07136
G1 X101.974 Y82.568 E0.09517
G1 X102.64 Y82.306 E0.11897
G1 X103.33 Y82.121 E0.14273
G1 X104.038 Y82.014 E0.16655
G1 X104.642 Y81.985 E0.18666
G1 X146.445 Y81.985 E1.57703
G1 X147.159 Y82.025 E1.60082
G1 X147.864 Y82.144 E1.6246
G1 X148.552 Y82.342 E1.64841
G1 X149.213 Y82.615 E1.6722
G1 X149.84 Y82.959 E1.69598
G1 X150.424 Y83.372 E1.71977
G1 X150.958 Y83.847 E1.74354
G1 X151.437 Y84.379 E1.76735
G1 X151.852 Y84.961 E1.79113
G1 X152.201 Y85.586 E1.81494
G1 X152.477 Y86.246 E1.83873
G1 X152.678 Y86.932 E1.86251
G1 X152.801 Y87.637 E1.88631
G1 X152.845 Y88.387 E1.9113
G1 X152.844 Y92.356 E2.04331
G1 X152.804 Y93.07 E2.06709
G1 X152.684 Y93.775 E2.09088
G1 X152.487 Y94.462 E2.11465
G1 X152.214 Y95.124 E2.13846
G1 X151.869 Y95.75 E2.16224
G1 X151.456 Y96.334 E2.18603
G1 X151.138 Y96.704 E2.20225
G1 X99.238 Y152.713 E4.74195
G1 X98.724 Y153.21 E4.76573
G1 X98.157 Y153.646 E4.78952
G1 X97.545 Y154.016 E4.8133
G1 X96.895 Y154.315 E4.8371
G1 X96.216 Y154.541 E4.8609
G1 X95.517 Y154.689 E4.88467
G1 X94.546 Y154.763 E4.91706
G1 X88.557 Y154.765 E5.11625
G1 X87.843 Y154.725 E5.14004
G1 X87.138 Y154.606 E5.16382
G1 X86.45 Y154.409 E5.18762
G1 X85.789 Y154.136 E5.2114
G1 X85.162 Y153.792 E5.23519
G1 X84.578 Y153.379 E5.25898
G1 X84.043 Y152.904 E5.28278
G1 X83.565 Y152.372 E5.30656
G1 X83.149 Y151.79 E5.33036
G1 X82.8 Y151.166 E5.35414
G1 X82.524 Y150.506 E5.37793
G1 X82.323 Y149.82 E5.40171
G1 X82.199 Y149.115 E5.42552
G1 X82.155 Y148.364 E5.45054
G1 X82.157 Y131.372 E6.01569
G1 X82.197 Y130.658 E6.03948
G1 X82.317 Y129.953 E6.06326
G1 X82.563 Y129.13 E6.09183
G1 X98.648 Y86.142 E7.61843
G1 X98.936 Y85.487 E7.64223
G1 X99.295 Y84.869 E7.666
G1 X99.72 Y84.294 E7.68978
M204 S5000
M205 X30 Y30
G0 F3600 X100.07 Y84.499
M204 S500
M205 X20 Y20
G1 F1800 X100.549 Y83.998 E7.71284
G1 X101.081 Y83.556 E7.73584
G1 X101.662 Y83.178 E7.7589
G1 X102.281 Y82.869 E7.78191
G1 X102.933 Y82.634 E7.80496
G1 X103.607 Y82.475 E7.82799
G1 X104.295 Y82.395 E7.85103
G1 X104.642 Y82.385 E7.86257
G1 X146.445 Y82.385 E9.25295
G1 X147.136 Y82.425 E9.27597
G1 X147.819 Y82.544 E9.29903
G1 X148.482 Y82.742 E9.32204
G1 X149.119 Y83.014 E9.34508
G1 X149.72 Y83.358 E9.36811
G1 X150.278 Y83.769 E9.39116
G1 X150.784 Y84.241 E9.41418
G1 X151.233 Y84.769 E9.43723
G1 X151.618 Y85.344 E9.46024
G1 X151.933 Y85.961 E9.48329
G1 X152.176 Y86.609 E9.5063
G1 X152.343 Y87.282 E9.52937
G1 X152.431 Y87.968 E9.55237
G1 X152.445 Y88.387 E9.56631
G1 X152.444 Y92.356 E9.69832
G1 X152.404 Y93.047 E9.72134
G1 X152.284 Y93.729 E9.74438
G1 X152.087 Y94.393 E9.76741
G1 X151.814 Y95.029 E9.79043
G1 X151.47 Y95.631 E9.81349
G1 X150.845 Y96.432 E9.84729
G1 X98.945 Y152.441 E12.38698
G1 X98.446 Y152.921 E12.41001
G1 X97.895 Y153.34 E12.43303
G1 X97.299 Y153.693 E12.45607
G1 X96.666 Y153.975 E12.47912
G1 X96.005 Y154.182 E12.50216
G1 X95.325 Y154.312 E12.52518
G1 X94.546 Y154.363 E12.55115
G1 X88.557 Y154.365 E12.75034
G1 X87.866 Y154.325 E12.77336
G1 X87.183 Y154.206 E12.79642
G1 X86.519 Y154.009 E12.81946
G1 X85.883 Y153.737 E12.84247
G1 X85.281 Y153.393 E12.86553
G1 X84.724 Y152.983 E12.88853
G1 X84.217 Y152.51 E12.91159
G1 X83.768 Y151.983 E12.93462
G1 X83.383 Y151.407 E12.95766
G1 X83.067 Y150.791 E12.98069
G1 X82.824 Y150.143 E13.00371
G1 X82.658 Y149.47 E13.02676
G1 X82.57 Y148.784 E13.04977
G1 X82.555 Y148.364 E13.06374
G1 X82.557 Y131.372 E13.6289
G1 X82.597 Y130.681 E13.65192
G1 X82.716 Y129.999 E13.67495
G1 X82.938 Y129.27 E13.70029
G1 X99.023 Y86.282 E15.22689
G1 X99.302 Y85.649 E15.2499
G1 X99.653 Y85.052 E15.27293
G1 X100.07 Y84.499 E15.29597
M204 S5000
M205 X30 Y30
G0 F3600 X100.42 Y84.706
M204 S500
M205 X20 Y20
G1 F1800 X100.888 Y84.229 E15.3182
G1 X101.411 Y83.811 E15.34047
G1 X101.979 Y83.459 E15.36269
G1 X102.586 Y83.176 E15.38497
G1 X103.222 Y82.968 E15.40722
G1 X103.878 Y82.837 E15.42947
G1 X104.642 Y82.785 E15.45494
G1 X146.445 Y82.785 E16.84531
G1 X147.113 Y82.825 E16.86757
G1 X147.771 Y82.944 E16.88981
G1 X148.411 Y83.141 E16.91208
G1 X149.022 Y83.413 E16.93433
G1 X149.596 Y83.756 E16.95657
G1 X150.126 Y84.165 E16.97884
G1 X150.603 Y84.634 E17.00108
G1 X151.021 Y85.156 E17.02333
G1 X151.373 Y85.725 E17.04558
G1 X151.655 Y86.332 E17.06784
G1 X151.863 Y86.968 E17.0901
G1 X151.993 Y87.624 E17.11234
G1 X152.045 Y88.386 E17.13774
G1 X152.044 Y92.355 E17.26975
G1 X152.004 Y93.023 E17.29201
G1 X151.884 Y93.682 E17.31429
G1 X151.687 Y94.321 E17.33653
G1 X151.415 Y94.932 E17.35877
G1 X151.072 Y95.507 E17.38104
G1 X150.552 Y96.16 E17.40881
G1 X98.652 Y152.169 E19.9485
G1 X98.168 Y152.632 E19.97078
G1 X97.633 Y153.034 E19.99304
G1 X97.054 Y153.369 E20.01528
G1 X96.439 Y153.632 E20.03753
G1 X95.798 Y153.821 E20.05976
G1 X95.138 Y153.931 E20.08201
G1 X94.546 Y153.963 E20.10173
G1 X88.557 Y153.965 E20.30093
G1 X87.889 Y153.925 E20.32318
G1 X87.231 Y153.806 E20.34542
G1 X86.591 Y153.609 E20.3677
G1 X85.98 Y153.338 E20.38993
G1 X85.405 Y152.995 E20.4122
G1 X84.875 Y152.587 E20.43444
G1 X84.398 Y152.118 E20.45669
G1 X83.98 Y151.595 E20.47896
G1 X83.628 Y151.026 E20.50121
G1 X83.346 Y150.42 E20.52344
G1 X83.138 Y149.784 E20.5457
G1 X83.007 Y149.128 E20.56795
G1 X82.955 Y148.364 E20.59342
G1 X82.957 Y131.372 E21.15858
G1 X82.997 Y130.705 E21.1808
G1 X83.116 Y130.046 E21.20307
G1 X83.312 Y129.411 E21.22518
G1 X99.397 Y86.423 E22.75178
G1 X99.669 Y85.811 E22.77405
G1 X100.011 Y85.236 E22.7963
G1 X100.42 Y84.706 E22.81857
M204 S5000
M205 X30 Y30
G0 F3600 X100.768 Y84.916
M204 S500
M205 X20 Y20
G1 F1800 X101.227 Y84.464 E22.83999
G1 X101.738 Y84.071 E22.86144
G1 X102.294 Y83.745 E22.88287
G1 X102.886 Y83.49 E22.90431
G1 X103.506 Y83.311 E22.92578
G1 X104.142 Y83.209 E22.9472
G1 X104.642 Y83.185 E22.96385
G1 X146.445 Y83.185 E24.35422
G1 X147.088 Y83.225 E24.37565
G1 X147.722 Y83.344 E24.3971
G1 X148.336 Y83.541 E24.41855
G1 X148.921 Y83.812 E24.43999
G1 X149.468 Y84.154 E24.46145
G1 X149.968 Y84.56 E24.48287
G1 X150.414 Y85.025 E24.5043
G1 X150.799 Y85.542 E24.52574
G1 X151.118 Y86.103 E24.54721
G1 X151.364 Y86.699 E24.56865
G1 X151.535 Y87.32 E24.59008
G1 X151.627 Y87.958 E24.61152
G1 X151.645 Y88.386 E24.62576
G1 X151.644 Y92.355 E24.75777
G1 X151.604 Y92.999 E24.77923
G1 X151.484 Y93.632 E24.80066
G1 X151.288 Y94.246 E24.8221
G1 X151.016 Y94.831 E24.84356
G1 X150.675 Y95.378 E24.865
G1 X150.258 Y95.888 E24.88691
G1 X98.358 Y151.897 E27.4266
G1 X97.892 Y152.342 E27.44803
G1 X97.373 Y152.726 E27.4695
G1 X96.812 Y153.042 E27.49092
G1 X96.215 Y153.287 E27.51238
G1 X95.593 Y153.456 E27.53382
G1 X94.955 Y153.547 E27.55526
G1 X94.546 Y153.563 E27.56887
G1 X88.557 Y153.565 E27.76807
G1 X87.913 Y153.525 E27.78953
G1 X87.28 Y153.406 E27.81095
G1 X86.666 Y153.21 E27.83239
G1 X86.081 Y152.939 E27.85383
G1 X85.534 Y152.597 E27.87529
G1 X85.033 Y152.191 E27.89673
G1 X84.587 Y151.726 E27.91816
G1 X84.202 Y151.209 E27.9396
G1 X83.883 Y150.649 E27.96104
G1 X83.637 Y150.053 E27.98248
G1 X83.466 Y149.431 E28.00394
G1 X83.373 Y148.793 E28.02538
G1 X83.355 Y148.364 E28.03966
G1 X83.357 Y131.372 E28.60482
G1 X83.397 Y130.729 E28.62625
G1 X83.516 Y130.095 E28.6477
G1 X83.687 Y129.551 E28.66667
G1 X99.772 Y86.563 E30.19327
G1 X100.035 Y85.974 E30.21472
G1 X100.368 Y85.422 E30.23616
G1 X100.768 Y84.916 E30.25762
M204 S5000
M205 X30 Y30
G1 F2400 E25.25762
;MESH:Ender-3_Logitech_C270_Mount_v1.stl
G0 F3600 X103.864 Y88.542
G0 X105.063 Y88.991
G0 X145.454 Y91.982
M204 S500
M205 X20 Y20
;TYPE:WALL-INNER
G1 F2400 E30.25762
G1 F1800 X94.11 Y147.375 E32.76971
G1 X89.546 Y147.375 E32.92151
G1 X89.546 Y131.556 E33.44766
G1 X105.33 Y89.375 E34.94561
G1 X145.454 Y89.375 E36.28014
G1 X145.454 Y91.982 E36.36685
M204 S5000
M205 X30 Y30
G0 F3600 X145.854 Y92.139
M204 S500
M205 X20 Y20
G1 F1800 X94.284 Y147.775 E38.88998
G1 X89.146 Y147.775 E39.06087
G1 X89.146 Y131.483 E39.60274
G1 X105.052 Y88.975 E41.1123
G1 X145.854 Y88.975 E42.46938
G1 X145.854 Y92.139 E42.57462
M204 S5000
M205 X30 Y30
G0 F3600 X146.254 Y92.296
M204 S500
M205 X20 Y20
;TYPE:WALL-OUTER
G1 F1800 X94.458 Y148.175 E45.10879
G1 X88.746 Y148.175 E45.29877
G1 X88.746 Y131.41 E45.85638
G1 X104.774 Y88.575 E47.37755
G1 X146.254 Y88.575 E48.75718
G1 X146.254 Y92.296 E48.88094
M204 S5000
M205 X30 Y30
G0 F3600 X146.119 Y92.442
G0 X145.798 Y92.142
G0 X145.064 Y91.829
M204 S500
M205 X20 Y20
;TYPE:SKIN
G1 F1800 X93.94 Y146.985 E51.38228
G1 X89.936 Y146.985 E51.51545
G1 X89.936 Y131.626 E52.02629
G1 X105.6 Y89.765 E53.51288
G1 X145.064 Y89.765 E54.82546
G1 X145.064 Y91.829 E54.89411
M204 S5000
M205 X30 Y30
G0 F3600 X144.883 Y90.011
M204 S500
M205 X20 Y20
G1 F1800 X144.816 Y89.945 E54.89723
M204 S5000
M205 X30 Y30
G0 F3600 X144.251 Y89.945
M204 S500
M205 X20 Y20
G1 F1800 X144.883 Y90.577 E54.92696
M204 S5000
M205 X30 Y30
G0 F3600 X144.883 Y91.143
M204 S500
M205 X20 Y20
G1 F1800 X143.685 Y89.945 E54.98331
M204 S5000
M205 X30 Y30
G0 F3600 X143.119 Y89.945
M204 S500
M205 X20 Y20
G1 F1800 X144.883 Y91.708 E55.06626
M204 S5000
M205 X30 Y30
G0 F3600 X144.635 Y92.026
M204 S500
M205 X20 Y20
G1 F1800 X142.554 Y89.945 E55.16414
M204 S5000
M205 X30 Y30
G0 F3600 X141.988 Y89.945
M204 S500
M205 X20 Y20
G1 F1800 X144.363 Y92.32 E55.27586
M204 S5000
M205 X30 Y30
G0 F3600 X144.091 Y92.614
M204 S500
M205 X20 Y20
G1 F1800 X141.422 Y89.945 E55.4014
M204 S5000
M205 X30 Y30
G0 F3600 X140.857 Y89.945
M204 S500
M205 X20 Y20
G1 F1800 X143.819 Y92.907 E55.54072
M204 S5000
M205 X30 Y30
G0 F3600 X143.546 Y93.2
M204 S500
M205 X20 Y20
G1 F1800 X140.291 Y89.945 E55.69383
M204 S5000
M205 X30 Y30
G0 F3600 X139.725 Y89.945
M204 S500
M205 X20 Y20
G1 F1800 X143.274 Y93.494 E55.86076
M204 S5000
M205 X30 Y30
G0 F3600 X143.002 Y93.787
M204 S500
M205 X20 Y20
G1 F1800 X139.16 Y89.945 E56.04148
M204 S5000
M205 X30 Y30
G0 F3600 X138.594 Y89.945
M204 S500
M205 X20 Y20
G1 F1800 X142.73 Y94.081 E56.23602
M204 S5000
M205 X30 Y30
G0 F3600 X142.458 Y94.375
M204 S500
M205 X20 Y20
G1 F1800 X138.028 Y89.945 E56.4444
M204 S5000
M205 X30 Y30
G0 F3600 X137.462 Y89.945
M204 S500
M205 X20 Y20
G1 F1800 X142.186 Y94.668 E56.66657
M204 S5000
M205 X30 Y30
G0 F3600 X141.914 Y94.962
M204 S500
M205 X20 Y20
G1 F1800 X136.897 Y89.945 E56.90256
M204 S5000
M205 X30 Y30
G0 F3600 X136.331 Y89.945
M204 S500
M205 X20 Y20
G1 F1800 X141.641 Y95.255 E57.15233
M204 S5000
M205 X30 Y30
G0 F3600 X141.369 Y95.549
M204 S500
M205 X20 Y20
G1 F1800 X135.765 Y89.945 E57.41592
M204 S5000
M205 X30 Y30
G0 F3600 X135.2 Y89.945
M204 S500
M205 X20 Y20
G1 F1800 X141.098 Y95.843 E57.69334
M204 S5000
M205 X30 Y30
G0 F3600 X140.825 Y96.136
M204 S500
M205 X20 Y20
G1 F1800 X134.634 Y89.945 E57.98455
M204 S5000
M205 X30 Y30
G0 F3600 X134.068 Y89.945
M204 S500
M205 X20 Y20
G1 F1800 X140.553 Y96.43 E58.28958
M204 S5000
M205 X30 Y30
G0 F3600 X140.281 Y96.723
M204 S500
M205 X20 Y20
G1 F1800 X133.503 Y89.945 E58.6084
M204 S5000
M205 X30 Y30
G0 F3600 X132.937 Y89.945
M204 S500
M205 X20 Y20
G1 F1800 X140.009 Y97.017 E58.94105
M204 S5000
M205 X30 Y30
G0 F3600 X139.737 Y97.31
M204 S500
M205 X20 Y20
G1 F1800 X132.371 Y89.945 E59.2875
M204 S5000
M205 X30 Y30
G0 F3600 X131.806 Y89.945
M204 S500
M205 X20 Y20
G1 F1800 X139.465 Y97.604 E59.64775
M204 S5000
M205 X30 Y30
G0 F3600 X139.193 Y97.898
M204 S500
M205 X20 Y20
G1 F1800 X131.24 Y89.945 E60.02184
M204 S5000
M205 X30 Y30
G0 F3600 X130.674 Y89.945
M204 S500
M205 X20 Y20
G1 F1800 X138.921 Y98.191 E60.40973
M204 S5000
M205 X30 Y30
G0 F3600 X138.648 Y98.485
M204 S500
M205 X20 Y20
G1 F1800 X130.109 Y89.945 E60.8114
M204 S5000
M205 X30 Y30
G0 F3600 X129.543 Y89.945
M204 S500
M205 X20 Y20
G1 F1800 X138.376 Y98.778 E61.22688
M204 S5000
M205 X30 Y30
G0 F3600 X138.104 Y99.072
M204 S500
M205 X20 Y20
G1 F1800 X128.977 Y89.945 E61.65618
M204 S5000
M205 X30 Y30
G0 F3600 X128.412 Y89.945
M204 S500
M205 X20 Y20
G1 F1800 X137.832 Y99.366 E62.09929
M204 S5000
M205 X30 Y30
G0 F3600 X137.56 Y99.659
M204 S500
M205 X20 Y20
G1 F1800 X127.846 Y89.945 E62.55621
M204 S5000
M205 X30 Y30
G0 F3600 X127.28 Y89.945
M204 S500
M205 X20 Y20
G1 F1800 X137.288 Y99.953 E63.02696
M204 S5000
M205 X30 Y30
G0 F3600 X137.016 Y100.246
M204 S500
M205 X20 Y20
G1 F1800 X126.714 Y89.945 E63.51151
M204 S5000
M205 X30 Y30
G0 F3600 X126.149 Y89.945
M204 S500
M205 X20 Y20
G1 F1800 X136.743 Y100.539 E64.00982
M204 S5000
M205 X30 Y30
G0 F3600 X136.472 Y100.834
M204 S500
M205 X20 Y20
G1 F1800 X125.583 Y89.945 E64.522
M204 S5000
M205 X30 Y30
G0 F3600 X125.017 Y89.945
M204 S500
M205 X20 Y20
G1 F1800 X136.2 Y101.127 E65.04799
M204 S5000
M205 X30 Y30
G0 F3600 X135.927 Y101.421
M204 S500
M205 X20 Y20
G1 F1800 X124.452 Y89.945 E65.58776
M204 S5000
M205 X30 Y30
G0 F3600 X123.886 Y89.945
M204 S500
M205 X20 Y20
G1 F1800 X135.655 Y101.714 E66.14134
M204 S5000
M205 X30 Y30
G0 F3600 X135.383 Y102.007
M204 S500
M205 X20 Y20
G1 F1800 X123.32 Y89.945 E66.70873
M204 S5000
M205 X30 Y30
G0 F3600 X122.755 Y89.945
M204 S500
M205 X20 Y20
G1 F1800 X135.111 Y102.301 E67.28991
M204 S5000
M205 X30 Y30
G0 F3600 X134.839 Y102.595
M204 S500
M205 X20 Y20
G1 F1800 X122.189 Y89.945 E67.88493
M204 S5000
M205 X30 Y30
G0 F3600 X121.623 Y89.945
M204 S500
M205 X20 Y20
G1 F1800 X134.567 Y102.888 E68.49375
M204 S5000
M205 X30 Y30
G0 F3600 X134.295 Y103.182
M204 S500
M205 X20 Y20
G1 F1800 X121.058 Y89.945 E69.11638
M204 S5000
M205 X30 Y30
G0 F3600 X120.492 Y89.945
M204 S500
M205 X20 Y20
G1 F1800 X134.022 Y103.475 E69.75279
M204 S5000
M205 X30 Y30
G0 F3600 X133.75 Y103.769
M204 S500
M205 X20 Y20
G1 F1800 X119.926 Y89.945 E70.40303
M204 S5000
M205 X30 Y30
G0 F3600 X119.361 Y89.945
M204 S500
M205 X20 Y20
G1 F1800 X133.478 Y104.062 E71.06705
M204 S5000
M205 X30 Y30
G0 F3600 X133.206 Y104.356
M204 S500
M205 X20 Y20
G1 F1800 X118.795 Y89.945 E71.7449
M204 S5000
M205 X30 Y30
G0 F3600 X118.229 Y89.945
M204 S500
M205 X20 Y20
G1 F1800 X132.934 Y104.65 E72.43658
M204 S5000
M205 X30 Y30
G0 F3600 X132.662 Y104.943
M204 S500
M205 X20 Y20
G1 F1800 X117.663 Y89.945 E73.14206
M204 S5000
M205 X30 Y30
G0 F3600 X117.098 Y89.945
M204 S500
M205 X20 Y20
G1 F1800 X132.39 Y105.237 E73.86135
M204 S5000
M205 X30 Y30
G0 F3600 X132.117 Y105.53
M204 S500
M205 X20 Y20
G1 F1800 X116.532 Y89.945 E74.59442
M204 S5000
M205 X30 Y30
G0 F3600 X115.966 Y89.945
M204 S500
M205 X20 Y20
G1 F1800 X131.845 Y105.824 E75.34132
M204 S5000
M205 X30 Y30
G0 F3600 X131.574 Y106.118
M204 S500
M205 X20 Y20
G1 F1800 X115.401 Y89.945 E76.10205
M204 S5000
M205 X30 Y30
G0 F3600 X114.835 Y89.945
M204 S500
M205 X20 Y20
G1 F1800 X131.301 Y106.411 E76.87656
M204 S5000
M205 X30 Y30
G0 F3600 X131.029 Y106.705
M204 S500
M205 X20 Y20
G1 F1800 X114.269 Y89.945 E77.6649
M204 S5000
M205 X30 Y30
G0 F3600 X113.704 Y89.945
M204 S500
M205 X20 Y20
G1 F1800 X130.757 Y106.998 E78.46702
M204 S5000
M205 X30 Y30
G0 F3600 X130.485 Y107.292
M204 S500
M205 X20 Y20
G1 F1800 X113.138 Y89.945 E79.28297
M204 S5000
M205 X30 Y30
G0 F3600 X112.572 Y89.945
M204 S500
M205 X20 Y20
G1 F1800 X130.213 Y107.586 E80.11275
M204 S5000
M205 X30 Y30
G0 F3600 X129.941 Y107.879
M204 S500
M205 X20 Y20
G1 F1800 X112.007 Y89.945 E80.95631
M204 S5000
M205 X30 Y30
G0 F3600 X111.441 Y89.945
M204 S500
M205 X20 Y20
G1 F1800 X129.669 Y108.173 E81.8137
M204 S5000
M205 X30 Y30
G0 F3600 X129.397 Y108.466
M204 S500
M205 X20 Y20
G1 F1800 X110.875 Y89.945 E82.68489
M204 S5000
M205 X30 Y30
G0 F3600 X110.31 Y89.945
