;FLAVOR:Marlin
;TIME:3210
;Filament used: 2.60133m
;Layer height: 0.16
;Generated with Cura_SteamEngine 4.0.0-BETA
M140 S50
M105
M190 S50
M104 S200
M105
M109 S200
M82 ;absolute extrusion mode
; Ender 3 Custom Start G-code
G28 ; Home all axes
G92 E0 ; Reset Extruder
G1 Z2.0 F3000 ; Move Z Axis up little to prevent scratching of Heat Bed
G1 X0.1 Y20 Z0.3 F5000.0 ; Move to start position
G1 X0.1 Y200.0 Z0.3 F1500.0 E15 ; Draw the first line
G1 X0.4 Y200.0 Z0.3 F5000.0 ; Move to side a little
G1 X0.4 Y20 Z0.3 F1500.0 E30 ; Draw the second line
G92 E0 ; Reset Extruder
G1 Z2.0 F3000 ; Move Z Axis up little to prevent scratching of Heat Bed
; End of custom start GCode
G92 E0
G1 F2400 E-5
;LAYER_COUNT:152
;LAYER:0
M107
M204 S5000
M205 X30 Y30
G0 F3600 X92.924 Y93.564 Z0.2
M204 S500
M205 X20 Y20
;TYPE:SKIRT
G1 F2400 E0
G1 F1800 X93.441 Y93.059 E0.02404
G1 X95.417 Y91.336 E0.11124
G1 X95.75 Y91.065 E0.12552
G1 X96.963 Y90.143 E0.17619
G1 X97.276 Y89.92 E0.18897
G1 X99.33 Y88.545 E0.27118
G1 X99.951 Y88.178 E0.29518
G1 X102.883 Y86.662 E0.40496
G1 X103.545 Y86.366 E0.42908
G1 X106.011 Y85.427 E0.51684
G1 X106.414 Y85.289 E0.53101
G1 X107.808 Y84.862 E0.5795
G1 X108.169 Y84.762 E0.59196
G1 X110.602 Y84.17 E0.67524
G1 X111.319 Y84.039 E0.69949
G1 X114.62 Y83.625 E0.81014
G1 X115.394 Y83.575 E0.83593
G1 X119.469 Y83.561 E0.97147
G1 X120.219 Y83.603 E0.99645
G1 X122.953 Y83.916 E1.08798
G1 X123.369 Y83.977 E1.10197
G1 X124.69 Y84.217 E1.14662
G1 X125.244 Y84.343 E1.16552
G1 X128.475 Y85.232 E1.27698
G1 X129.161 Y85.464 E1.30106
G1 X131.62 Y86.451 E1.38919
G1 X132.019 Y86.627 E1.4037
G1 X133.367 Y87.278 E1.45348
G1 X133.702 Y87.452 E1.46604
G1 X135.853 Y88.652 E1.54796
G1 X136.437 Y89.02 E1.57092
G1 X138.613 Y90.563 E1.65964
G1 X138.976 Y90.84 E1.67483
G1 X140.14 Y91.797 E1.72495
G1 X140.407 Y92.03 E1.73674
G1 X142.184 Y93.664 E1.81703
G1 X142.668 Y94.16 E1.84008
G1 X144.414 Y96.155 E1.92826
G1 X144.694 Y96.498 E1.94298
G1 X145.614 Y97.709 E1.99357
G1 X145.83 Y98.012 E2.00594
G1 X147.192 Y100.039 E2.08717
G1 X147.555 Y100.65 E2.1108
G1 X149.075 Y103.566 E2.22018
G1 X149.308 Y104.063 E2.23843
G1 X149.9 Y105.484 E2.28963
G1 X150.093 Y106.012 E2.30833
G1 X151.012 Y108.913 E2.40954
G1 X151.135 Y109.356 E2.42484
G1 X151.543 Y111.06 E2.48311
G1 X151.651 Y111.617 E2.50198
G1 X152.037 Y114.236 E2.59003
G1 X152.093 Y114.771 E2.60793
G1 X152.247 Y117.24 E2.6902
G1 X152.258 Y117.751 E2.7072
G1 X152.228 Y119.456 E2.76392
G1 X152.196 Y119.997 E2.78195
G1 X151.931 Y122.577 E2.86821
G1 X151.873 Y122.999 E2.88238
G1 X151.601 Y124.594 E2.93619
G1 X151.523 Y124.98 E2.94929
G1 X150.965 Y127.358 E3.03053
G1 X150.773 Y128.014 E3.05327
G1 X149.906 Y130.486 E3.14039
G1 X149.75 Y130.887 E3.15471
G1 X149.157 Y132.272 E3.20482
G1 X149.002 Y132.609 E3.21715
G1 X147.959 Y134.701 E3.2949
G1 X147.605 Y135.32 E3.31862
G1 X145.761 Y138.172 E3.43158
G1 X145.34 Y138.75 E3.45536
G1 X144.857 Y139.277 E3.47914
G1 X144.318 Y139.748 E3.50294
G1 X143.73 Y140.155 E3.52673
G1 X143.1 Y140.494 E3.55052
G1 X142.436 Y140.76 E3.57431
G1 X141.589 Y140.983 E3.60345
G1 X140.525 Y141.186 E3.63947
G1 X134.584 Y142.47 E3.84163
G1 X132.105 Y143.129 E3.92695
G1 X127.016 Y144.715 E4.10424
G1 X122.054 Y146.576 E4.2805
G1 X117.172 Y148.73 E4.45798
G1 X115.716 Y149.458 E4.51212
G1 X114.443 Y150.074 E4.55916
G1 X113.782 Y150.349 E4.58297
G1 X113.096 Y150.549 E4.60674
G1 X112.391 Y150.671 E4.63053
G1 X111.645 Y150.713 E4.65539
G1 X102.274 Y150.699 E4.96707
G1 X101.56 Y150.658 E4.99085
G1 X100.855 Y150.537 E5.01465
G1 X100.168 Y150.339 E5.03843
G1 X99.507 Y150.065 E5.06222
G1 X98.881 Y149.719 E5.08601
G1 X98.298 Y149.306 E5.10978
G1 X97.764 Y148.83 E5.13357
G1 X97.136 Y148.101 E5.16557
G1 X95.409 Y145.763 E5.26225
G1 X92.007 Y141.552 E5.4423
G1 X90.162 Y139.408 E5.53638
G1 X89.678 Y138.769 E5.56304
G1 X87.482 Y135.458 E5.69519
G1 X87.168 Y134.932 E5.71556
G1 X86.556 Y133.784 E5.75883
G1 X86.383 Y133.434 E5.77182
G1 X85.263 Y130.984 E5.86142
G1 X85.008 Y130.334 E5.88464
G1 X84.187 Y127.853 E5.97156
G1 X84.064 Y127.432 E5.98615
G1 X83.678 Y125.927 E6.03782
G1 X83.596 Y125.567 E6.0501
G1 X83.129 Y123.182 E6.13093
G1 X83.033 Y122.494 E6.15404
G1 X82.808 Y119.849 E6.24233
G1 X82.786 Y119.394 E6.25748
G1 X82.765 Y117.854 E6.30871
G1 X82.77 Y117.499 E6.32051
G1 X82.871 Y115.092 E6.40064
G1 X82.937 Y114.404 E6.42363
G1 X83.324 Y111.841 E6.50984
G1 X83.403 Y111.416 E6.52422
G1 X83.743 Y109.878 E6.57661
G1 X83.835 Y109.512 E6.58916
G1 X84.497 Y107.179 E6.66982
G1 X84.732 Y106.5 E6.69372
G1 X85.984 Y103.444 E6.80356
G1 X86.295 Y102.792 E6.82759
G1 X87.545 Y100.513 E6.91404
G1 X87.77 Y100.134 E6.9287
G1 X88.625 Y98.802 E6.98134
G1 X88.835 Y98.495 E6.99371
G1 X90.252 Y96.546 E7.07386
G1 X90.705 Y95.991 E7.09769
G1 X92.924 Y93.564 E7.20706
M204 S5000
M205 X30 Y30
G0 F3600 X93.219 Y93.834
M204 S500
M205 X20 Y20
G1 F1800 X93.704 Y93.361 E7.2296
G1 X95.68 Y91.638 E7.3168
G1 X95.992 Y91.383 E7.3302
G1 X97.205 Y90.461 E7.38087
G1 X97.498 Y90.252 E7.39284
G1 X99.552 Y88.877 E7.47505
G1 X100.134 Y88.533 E7.49754
G1 X103.066 Y87.017 E7.60732
G1 X103.687 Y86.74 E7.62994
G1 X106.153 Y85.801 E7.7177
G1 X106.531 Y85.671 E7.731
G1 X107.925 Y85.244 E7.77949
G1 X108.263 Y85.151 E7.79115
G1 X110.696 Y84.559 E7.87443
G1 X111.368 Y84.436 E7.89715
G1 X114.669 Y84.022 E8.00781
G1 X115.395 Y83.975 E8.032
G1 X119.47 Y83.961 E8.16754
G1 X120.173 Y84 E8.19096
G1 X122.907 Y84.313 E8.28249
G1 X123.298 Y84.371 E8.29563
G1 X124.619 Y84.611 E8.34029
G1 X125.138 Y84.729 E8.35799
G1 X128.369 Y85.618 E8.46945
G1 X129.012 Y85.835 E8.49202
G1 X131.471 Y86.822 E8.58015
G1 X131.845 Y86.987 E8.59374
G1 X133.193 Y87.638 E8.64353
G1 X133.507 Y87.801 E8.6553
G1 X135.658 Y89.001 E8.73722
G1 X136.206 Y89.347 E8.75878
G1 X138.382 Y90.89 E8.8475
G1 X138.721 Y91.149 E8.86169
G1 X139.885 Y92.106 E8.91181
G1 X140.136 Y92.324 E8.92287
G1 X141.913 Y93.958 E9.00316
G1 X142.367 Y94.423 E9.02477
G1 X144.113 Y96.418 E9.11295
G1 X144.376 Y96.74 E9.12678
G1 X145.296 Y97.951 E9.17736
G1 X145.498 Y98.235 E9.18895
G1 X146.86 Y100.262 E9.27018
G1 X147.201 Y100.835 E9.29236
G1 X148.721 Y103.751 E9.40173
G1 X148.939 Y104.217 E9.41884
G1 X149.531 Y105.638 E9.47004
G1 X149.712 Y106.133 E9.48757
G1 X150.631 Y109.034 E9.58878
G1 X150.746 Y109.449 E9.60311
G1 X151.154 Y111.153 E9.66138
G1 X151.255 Y111.675 E9.67907
G1 X151.641 Y114.294 E9.76712
G1 X151.693 Y114.795 E9.78387
G1 X151.847 Y117.264 E9.86615
G1 X151.858 Y117.744 E9.88212
G1 X151.828 Y119.449 E9.93883
G1 X151.798 Y119.956 E9.95573
G1 X151.533 Y122.536 E10.04199
G1 X151.479 Y122.932 E10.05528
G1 X151.207 Y124.527 E10.1091
G1 X151.133 Y124.889 E10.12139
G1 X150.575 Y127.267 E10.20263
G1 X150.396 Y127.882 E10.22393
G1 X149.529 Y130.354 E10.31106
G1 X149.383 Y130.73 E10.32448
G1 X148.79 Y132.115 E10.37459
G1 X148.644 Y132.43 E10.38613
G1 X147.601 Y134.522 E10.46388
G1 X147.27 Y135.103 E10.48612
G1 X145.426 Y137.955 E10.59908
G1 X145.017 Y138.514 E10.62212
G1 X144.546 Y139.022 E10.64516
G1 X144.02 Y139.472 E10.66818
G1 X143.446 Y139.859 E10.69121
G1 X142.83 Y140.177 E10.71427
G1 X142.183 Y140.422 E10.73728
G1 X141.514 Y140.59 E10.76022
G1 X140.444 Y140.795 E10.79645
G1 X134.488 Y142.082 E10.99912
G1 X131.996 Y142.743 E11.08487
G1 X126.883 Y144.338 E11.26302
G1 X121.91 Y146.203 E11.43967
G1 X117.011 Y148.364 E11.61776
G1 X115.611 Y149.064 E11.66982
G1 X115.541 Y149.098 E11.67241
G1 X114.268 Y149.714 E11.71944
G1 X113.629 Y149.979 E11.74245
G1 X112.963 Y150.169 E11.76549
G1 X112.279 Y150.28 E11.78853
G1 X111.646 Y150.313 E11.80962
G1 X102.275 Y150.299 E12.1213
G1 X101.584 Y150.258 E12.14432
G1 X100.902 Y150.138 E12.16735
G1 X100.238 Y149.939 E12.19041
G1 X99.602 Y149.666 E12.21343
G1 X99.001 Y149.321 E12.23648
G1 X98.444 Y148.91 E12.2595
G1 X97.939 Y148.436 E12.28253
G1 X97.458 Y147.864 E12.30739
G1 X95.728 Y145.522 E12.40423
G1 X92.309 Y141.289 E12.58521
G1 X90.465 Y139.147 E12.67922
G1 X90.012 Y138.548 E12.7042
G1 X87.816 Y135.237 E12.83634
G1 X87.521 Y134.744 E12.85545
G1 X86.909 Y133.596 E12.89872
G1 X86.747 Y133.268 E12.91089
G1 X85.627 Y130.818 E13.00049
G1 X85.388 Y130.208 E13.02228
G1 X84.567 Y127.727 E13.1092
G1 X84.451 Y127.333 E13.12286
G1 X84.065 Y125.828 E13.17453
G1 X83.989 Y125.49 E13.18606
G1 X83.522 Y123.105 E13.26689
G1 X83.432 Y122.461 E13.28852
G1 X83.207 Y119.816 E13.37681
G1 X83.186 Y119.389 E13.39103
G1 X83.165 Y117.849 E13.44225
G1 X83.169 Y117.515 E13.45336
G1 X83.27 Y115.108 E13.53349
G1 X83.332 Y114.464 E13.55501
G1 X83.719 Y111.901 E13.64122
G1 X83.793 Y111.502 E13.65472
G1 X84.133 Y109.964 E13.7071
G1 X84.22 Y109.621 E13.71887
G1 X84.882 Y107.288 E13.79953
G1 X85.102 Y106.651 E13.82195
G1 X86.354 Y103.595 E13.93179
G1 X86.645 Y102.985 E13.95427
G1 X87.895 Y100.706 E14.04072
G1 X88.107 Y100.35 E14.0545
G1 X88.962 Y99.018 E14.10715
G1 X89.158 Y98.731 E14.11871
G1 X90.575 Y96.782 E14.19885
G1 X91 Y96.261 E14.22122
G1 X93.219 Y93.834 E14.33059
M204 S5000
M205 X30 Y30
G0 F3600 X93.514 Y94.104
M204 S500
M205 X20 Y20
G1 F1800 X93.967 Y93.662 E14.35164
G1 X95.943 Y91.939 E14.43884
G1 X96.234 Y91.702 E14.45132
G1 X97.447 Y90.78 E14.502
G1 X97.721 Y90.584 E14.5132
G1 X99.775 Y89.209 E14.59541
G1 X100.318 Y88.889 E14.61638
G1 X103.25 Y87.373 E14.72616
G1 X103.829 Y87.114 E14.74726
G1 X106.295 Y86.175 E14.83502
G1 X106.648 Y86.054 E14.84743
G1 X108.042 Y85.627 E14.89592
G1 X108.358 Y85.54 E14.90683
G1 X110.791 Y84.948 E14.99011
G1 X111.418 Y84.833 E15.01131
G1 X114.719 Y84.419 E15.12196
G1 X115.397 Y84.375 E15.14456
G1 X119.472 Y84.361 E15.2801
G1 X120.128 Y84.397 E15.30195
G1 X122.862 Y84.71 E15.39347
G1 X123.226 Y84.764 E15.40571
G1 X124.547 Y85.004 E15.45037
G1 X125.032 Y85.115 E15.46692
G1 X128.263 Y86.004 E15.57837
G1 X128.863 Y86.206 E15.59943
G1 X131.322 Y87.193 E15.68756
G1 X131.671 Y87.347 E15.70025
G1 X133.019 Y87.998 E15.75004
G1 X133.312 Y88.151 E15.76103
G1 X135.463 Y89.351 E15.84295
G1 X135.974 Y89.673 E15.86304
G1 X138.15 Y91.216 E15.95177
G1 X138.467 Y91.458 E15.96503
G1 X139.631 Y92.415 E16.01515
G1 X139.865 Y92.619 E16.02548
G1 X141.642 Y94.253 E16.10577
G1 X142.066 Y94.687 E16.12595
G1 X143.812 Y96.682 E16.21412
G1 X144.057 Y96.982 E16.22701
G1 X144.977 Y98.193 E16.27759
G1 X145.166 Y98.458 E16.28842
G1 X146.528 Y100.485 E16.36964
G1 X146.846 Y101.019 E16.39031
G1 X148.366 Y103.935 E16.49968
G1 X148.569 Y104.37 E16.51565
G1 X149.161 Y105.791 E16.56685
G1 X149.331 Y106.254 E16.58325
G1 X150.25 Y109.155 E16.68447
G1 X150.357 Y109.542 E16.69782
G1 X150.765 Y111.246 E16.7561
G1 X150.859 Y111.733 E16.7726
G1 X151.245 Y114.352 E16.86065
G1 X151.294 Y114.82 E16.8763
G1 X151.448 Y117.289 E16.95858
G1 X151.458 Y117.737 E16.97348
G1 X151.428 Y119.442 E17.0302
G1 X151.4 Y119.915 E17.04596
G1 X151.135 Y122.495 E17.13222
G1 X151.084 Y122.864 E17.14461
G1 X150.812 Y124.459 E17.19842
G1 X150.744 Y124.797 E17.20989
G1 X150.186 Y127.175 E17.29113
G1 X150.018 Y127.749 E17.31103
G1 X149.151 Y130.221 E17.39815
G1 X149.015 Y130.572 E17.41067
G1 X148.422 Y131.957 E17.46078
G1 X148.286 Y132.252 E17.47159
G1 X147.243 Y134.344 E17.54934
G1 X146.934 Y134.886 E17.57009
G1 X145.09 Y137.738 E17.68305
G1 X144.693 Y138.277 E17.70531
G1 X144.236 Y138.765 E17.72755
G1 X143.723 Y139.195 E17.74981
G1 X143.163 Y139.56 E17.77204
G1 X142.563 Y139.857 E17.79431
G1 X141.932 Y140.08 E17.81657
G1 X141.439 Y140.197 E17.83342
G1 X140.371 Y140.401 E17.86959
G1 X134.383 Y141.695 E18.07335
G1 X131.894 Y142.356 E18.159
G1 X126.745 Y143.962 E18.33839
G1 X121.765 Y145.829 E18.51529
G1 X116.841 Y148.002 E18.6943
G1 X115.432 Y148.706 E18.74669
G1 X115.367 Y148.738 E18.7491
G1 X114.094 Y149.354 E18.79613
G1 X113.476 Y149.609 E18.81837
G1 X112.831 Y149.788 E18.84063
G1 X112.17 Y149.889 E18.86287
G1 X111.647 Y149.913 E18.88029
G1 X102.276 Y149.899 E19.19197
G1 X101.608 Y149.858 E19.21423
G1 X100.95 Y149.738 E19.23647
G1 X100.311 Y149.54 E19.25872
G1 X99.7 Y149.267 E19.28098
G1 X99.126 Y148.923 E19.30324
G1 X98.597 Y148.514 E19.32548
G1 X98.12 Y148.044 E19.34775
G1 X97.779 Y147.626 E19.36569
G1 X96.033 Y145.262 E19.46344
G1 X92.627 Y141.045 E19.64373
G1 X90.768 Y138.886 E19.73849
G1 X90.345 Y138.327 E19.76181
G1 X88.149 Y135.016 E19.89395
G1 X87.874 Y134.555 E19.91181
G1 X87.262 Y133.407 E19.95508
G1 X87.111 Y133.101 E19.96643
G1 X85.991 Y130.651 E20.05602
G1 X85.768 Y130.082 E20.07635
G1 X84.947 Y127.601 E20.16327
G1 X84.839 Y127.233 E20.17603
G1 X84.453 Y125.728 E20.2277
G1 X84.381 Y125.413 E20.23845
G1 X83.914 Y123.028 E20.31928
G1 X83.83 Y122.427 E20.33947
G1 X83.605 Y119.782 E20.42776
G1 X83.586 Y119.383 E20.44104
G1 X83.565 Y117.843 E20.49227
G1 X83.569 Y117.532 E20.50261
G1 X83.67 Y115.125 E20.58274
G1 X83.728 Y114.524 E20.60282
G1 X84.115 Y111.961 E20.68903
G1 X84.184 Y111.588 E20.70165
G1 X84.524 Y110.05 E20.75404
G1 X84.605 Y109.73 E20.76502
G1 X85.267 Y107.397 E20.84568
G1 X85.472 Y106.803 E20.86658
G1 X86.724 Y103.747 E20.97642
G1 X86.996 Y103.177 E20.99743
G1 X88.246 Y100.898 E21.08388
G1 X88.443 Y100.566 E21.09672
G1 X89.298 Y99.234 E21.14936
G1 X89.482 Y98.966 E21.16018
G1 X90.899 Y97.017 E21.24032
G1 X91.295 Y96.531 E21.26117
G1 X93.514 Y94.104 E21.37055
M204 S5000
M205 X30 Y30
G0 F3600 X93.809 Y94.374
M204 S500
M205 X20 Y20
G1 F1800 X94.23 Y93.964 E21.39009
G1 X96.206 Y92.241 E21.47729
G1 X96.476 Y92.02 E21.4889
G1 X97.689 Y91.098 E21.53957
G1 X97.943 Y90.917 E21.54995
G1 X99.997 Y89.542 E21.63216
G1 X100.502 Y89.244 E21.65166
G1 X103.434 Y87.728 E21.76144
G1 X103.972 Y87.487 E21.78105
G1 X106.438 Y86.548 E21.86882
G1 X106.765 Y86.436 E21.88031
G1 X108.159 Y86.009 E21.9288
G1 X108.453 Y85.928 E21.93895
G1 X110.886 Y85.336 E22.02223
G1 X111.468 Y85.229 E22.04191
G1 X114.769 Y84.815 E22.15256
G1 X115.398 Y84.775 E22.17352
G1 X119.473 Y84.761 E22.30906
G1 X120.082 Y84.795 E22.32935
G1 X122.816 Y85.108 E22.42087
G1 X123.155 Y85.158 E22.43227
G1 X124.476 Y85.398 E22.47693
G1 X124.925 Y85.5 E22.49224
G1 X128.156 Y86.389 E22.6037
G1 X128.714 Y86.577 E22.62328
G1 X131.173 Y87.564 E22.71141
G1 X131.497 Y87.707 E22.72319
G1 X132.845 Y88.358 E22.77298
G1 X133.117 Y88.5 E22.78319
G1 X135.268 Y89.7 E22.86511
G1 X135.743 Y89.999 E22.88378
G1 X137.919 Y91.542 E22.9725
G1 X138.213 Y91.767 E22.98481
G1 X139.377 Y92.724 E23.03493
G1 X139.595 Y92.913 E23.04453
G1 X141.372 Y94.547 E23.12482
G1 X141.765 Y94.95 E23.14354
G1 X143.511 Y96.945 E23.23172
G1 X143.739 Y97.224 E23.2437
G1 X144.659 Y98.435 E23.29429
G1 X144.834 Y98.681 E23.30433
G1 X146.196 Y100.708 E23.38555
G1 X146.491 Y101.204 E23.40475
G1 X148.011 Y104.12 E23.51412
G1 X148.2 Y104.524 E23.52895
G1 X148.792 Y105.945 E23.58015
G1 X148.949 Y106.375 E23.59538
G1 X149.868 Y109.276 E23.69659
G1 X149.968 Y109.635 E23.70899
G1 X150.376 Y111.339 E23.76727
G1 X150.463 Y111.792 E23.78261
G1 X150.849 Y114.411 E23.87066
G1 X150.895 Y114.845 E23.88517
G1 X151.049 Y117.314 E23.96745
G1 X151.058 Y117.729 E23.98126
G1 X151.028 Y119.434 E24.03797
G1 X151.002 Y119.874 E24.05263
G1 X150.737 Y122.454 E24.1389
G1 X150.69 Y122.797 E24.15041
G1 X150.418 Y124.392 E24.20423
G1 X150.354 Y124.706 E24.21489
G1 X149.796 Y127.084 E24.29613
G1 X149.641 Y127.617 E24.31459
G1 X148.774 Y130.089 E24.40172
G1 X148.647 Y130.415 E24.41336
G1 X148.054 Y131.8 E24.46347
G1 X147.928 Y132.073 E24.47347
G1 X146.885 Y134.165 E24.55121
G1 X146.598 Y134.668 E24.57048
G1 X144.754 Y137.52 E24.68343
G1 X144.371 Y138.039 E24.70489
G1 X143.927 Y138.506 E24.72632
G1 X143.428 Y138.915 E24.74778
G1 X142.883 Y139.259 E24.76921
G1 X142.299 Y139.533 E24.79067
G1 X141.686 Y139.732 E24.81211
G1 X141.364 Y139.804 E24.82308
G1 X140.289 Y140.009 E24.85948
G1 X134.303 Y141.303 E25.06317
G1 X131.769 Y141.976 E25.15038
G1 X126.627 Y143.579 E25.32952
G1 X121.606 Y145.463 E25.50789
G1 X116.671 Y147.639 E25.68727
G1 X115.254 Y148.348 E25.73997
G1 X115.193 Y148.378 E25.74223
G1 X113.92 Y148.994 E25.78927
G1 X113.323 Y149.238 E25.81072
G1 X112.701 Y149.407 E25.83216
G1 X112.063 Y149.497 E25.85359
G1 X111.647 Y149.513 E25.86744
G1 X102.276 Y149.499 E26.17912
G1 X101.633 Y149.458 E26.20055
G1 X100.999 Y149.338 E26.22201
G1 X100.386 Y149.14 E26.24343
G1 X99.801 Y148.868 E26.26489
G1 X99.255 Y148.526 E26.28632
